xoomie_app/assets/images/app_logo.svg

<svg fill="none" height="100" viewBox="0 0 109 100" width="109" xmlns="http://www.w3.org/2000/svg" xmlns:xlink="http://www.w3.org/1999/xlink"><linearGradient id="a" gradientUnits="userSpaceOnUse" x1="6.41414" x2="100.721" y1="79.5517" y2="25.1039"><stop offset=".1" stop-color="#f27121"/><stop offset=".6" stop-color="#e94057"/><stop offset="1" stop-color="#8a2387"/></linearGradient><linearGradient id="b" gradientUnits="userSpaceOnUse" x1="29.38" x2="87.2525" y1="47.3705" y2="80.7833"><stop offset=".0000002422" stop-color="#8a2387"/><stop offset=".7" stop-color="#8a2387" stop-opacity="0"/></linearGradient><linearGradient id="c" gradientUnits="userSpaceOnUse" x1="59.9218" x2="104.078" y1="61.7751" y2="61.7751"><stop offset="0" stop-color="#8a2387" stop-opacity=".7"/><stop offset=".5" stop-color="#8a2387" stop-opacity="0"/></linearGradient><path d="m66.0387 39.8157s-8.6341 10.1865-5.3858 23.7888 16.0597 24.695 32.351 18.2451c16.2911-6.4499 21.1421-37.4675 8.3651-55.2999-12.7767-17.8324-32.9531-33.2747-64.8032-23.53118-31.85002 9.74348-57.2936 61.86688-12.1465 96.98148 0 0-13.8811-14.9278-12.51-34.1231 1.3711-19.1954 13.9396-38.8478 37.3624-43.5324 0 0-19.6524 13.0254-20.2236 34.7344-.5714 21.709 11.8828 45.5891 47.4169 42.3896 0 0-18.1286-4.3611-23.7907-22.6726-5.6621-18.3116 7.6944-33.1208 13.3644-36.9802z" fill="url(#a)"/><path d="m76.465 99.4679c-35.5341 3.2001-47.9878-20.6801-47.4168-42.3895.557-21.1992 19.3128-34.1187 20.1915-34.7125-5.8642 5.4616-14.7452 16.082-15.1262 30.5714-.4824 18.3507 8.3404 38.2522 32.5438 42.0389 5.2552 3.3966 9.8077 4.4917 9.8077 4.4917z" fill="url(#b)"/><path d="m104.078 71.0804c-2.646 5.0247-6.386 8.9152-11.074 10.7698-16.2909 6.4491-29.1028-4.6436-32.3514-18.2456-3.227-13.512 5.2729-23.6552 5.3843-23.7881.0013-.0013.0013-.0013.0013-.0013-2.2003 4.2209-4.6272 11.237-2.6497 19.5179 3.2485 13.602 16.0592 24.6947 32.3513 18.2457 3.251-1.2876 6.0482-3.5537 8.3382-6.4984z" fill="url(#c)"/></svg>

<svg width="109" height="100" viewBox="0 0 109 100" fill="none" xmlns="http://www.w3.org/2000/svg">
<path d="M66.0387 39.8157C66.0387 39.8157 57.4046 50.0022 60.6529 63.6045C63.9012 77.2068 76.7126 88.2995 93.0039 81.8496C109.295 75.3997 114.146 44.3821 101.369 26.5497C88.5923 8.7173 68.4159 -6.725 36.5658 3.01852C4.71578 12.762 -20.7278 64.8854 24.4193 100C24.4193 100 10.5382 85.0722 11.9093 65.8769C13.2804 46.6815 25.8489 27.0291 49.2717 22.3445C49.2717 22.3445 29.6193 35.3699 29.0481 57.0789C28.4767 78.7879 40.9309 102.668 76.465 99.4685C76.465 99.4685 58.3364 95.1074 52.6743 76.7959C47.0122 58.4843 60.3687 43.6751 66.0387 39.8157Z" fill="url(#paint0_linear_309_5077)"/>
<path d="M76.465 99.4679C40.9309 102.668 28.4772 78.7878 29.0482 57.0784C29.6052 35.8792 48.361 22.9597 49.2397 22.3659C43.3755 27.8275 34.4945 38.4479 34.1135 52.9373C33.6311 71.288 42.4539 91.1895 66.6573 94.9762C71.9125 98.3728 76.465 99.4679 76.465 99.4679Z" fill="url(#paint1_linear_309_5077)"/>
<path d="M104.078 71.0804C101.432 76.1051 97.692 79.9956 93.004 81.8502C76.7131 88.2993 63.9012 77.2066 60.6526 63.6046C57.4256 50.0926 65.9255 39.9494 66.0369 39.8165C66.0382 39.8152 66.0382 39.8152 66.0382 39.8152C63.8379 44.0361 61.411 51.0522 63.3885 59.3331C66.637 72.9351 79.4477 84.0278 95.7398 77.5788C98.9908 76.2912 101.788 74.0251 104.078 71.0804Z" fill="url(#paint2_linear_309_5077)"/>
<defs>
<linearGradient id="paint0_linear_309_5077" x1="6.41414" y1="79.5517" x2="100.721" y2="25.1039" gradientUnits="userSpaceOnUse">
<stop offset="0.1" stop-color="#F27121"/>
<stop offset="0.6" stop-color="#E94057"/>
<stop offset="1" stop-color="#8A2387"/>
</linearGradient>
<linearGradient id="paint1_linear_309_5077" x1="29.38" y1="47.3705" x2="87.2525" y2="80.7833" gradientUnits="userSpaceOnUse">
<stop offset="2.42203e-07" stop-color="#8A2387"/>
<stop offset="0.7" stop-color="#8A2387" stop-opacity="0"/>
</linearGradient>
<linearGradient id="paint2_linear_309_5077" x1="59.9218" y1="61.7751" x2="104.078" y2="61.7751" gradientUnits="userSpaceOnUse">
<stop stop-color="#8A2387" stop-opacity="0.7"/>
<stop offset="0.5" stop-color="#8A2387" stop-opacity="0"/>
</linearGradient>
</defs>
</svg>
